austria/municipalities/70941.svg

<?xml version="1.0" encoding="UTF-8"?>
<!DOCTYPE svg PUBLIC "-//W3C//DTD SVG 1.1//EN" "http://www.w3.org/Graphics/SVG/1.1/DTD/svg11.dtd">
<svg xmlns="http://www.w3.org/2000/svg" version="1.1" width="166px" height="192px" style="shape-rendering:geometricPrecision; text-rendering:geometricPrecision; image-rendering:optimizeQuality; fill-rule:evenodd; clip-rule:evenodd" xmlns:xlink="http://www.w3.org/1999/xlink">
<g><path style="opacity:1" fill="#000000" d="M -0.5,-0.5 C 54.8333,-0.5 110.167,-0.5 165.5,-0.5C 165.5,39.5 165.5,79.5 165.5,119.5C 161.89,140.883 151.89,158.716 135.5,173C 130.672,176.581 125.672,179.915 120.5,183C 112.336,186.554 104.002,189.388 95.5,191.5C 86.8333,191.5 78.1667,191.5 69.5,191.5C 30.064,182.064 6.73062,157.397 -0.5,117.5C -0.5,78.1667 -0.5,38.8333 -0.5,-0.5 Z"/></g>
<g><path style="opacity:1" fill="#c80200" d="M 17.5,4.5 C 65.3304,3.50118 113.33,3.16784 161.5,3.5C 161.667,43.1681 161.5,82.8347 161,122.5C 158.881,133.234 154.714,143.068 148.5,152C 118.008,160.166 96.5084,149.999 84,121.5C 75.4838,95.0959 66.8171,68.7625 58,42.5C 52.8123,25.312 41.9789,13.1453 25.5,6C 22.8832,5.1785 20.2165,4.6785 17.5,4.5 Z"/></g>
<g><path style="opacity:1" fill="#000000" d="M 116.5,25.5 C 117.919,24.5489 119.585,24.2155 121.5,24.5C 121.5,27.1667 121.5,29.8333 121.5,32.5C 124.167,32.5 126.833,32.5 129.5,32.5C 129.5,34.1667 129.5,35.8333 129.5,37.5C 126.833,37.5 124.167,37.5 121.5,37.5C 123.607,36.5318 125.941,36.1984 128.5,36.5C 128.5,35.5 128.5,34.5 128.5,33.5C 125.833,33.5 123.167,33.5 120.5,33.5C 120.5,30.8333 120.5,28.1667 120.5,25.5C 119.167,25.5 117.833,25.5 116.5,25.5 Z"/></g>
<g><path style="opacity:1" fill="#fe9900" d="M 116.5,25.5 C 117.833,25.5 119.167,25.5 120.5,25.5C 120.5,28.1667 120.5,30.8333 120.5,33.5C 123.167,33.5 125.833,33.5 128.5,33.5C 128.5,34.5 128.5,35.5 128.5,36.5C 125.941,36.1984 123.607,36.5318 121.5,37.5C 120.518,40.9619 120.185,44.6286 120.5,48.5C 119.167,48.5 117.833,48.5 116.5,48.5C 116.5,44.5 116.5,40.5 116.5,36.5C 113.833,36.5 111.167,36.5 108.5,36.5C 108.5,35.5 108.5,34.5 108.5,33.5C 111.167,33.5 113.833,33.5 116.5,33.5C 116.5,30.8333 116.5,28.1667 116.5,25.5 Z"/></g>
<g><path style="opacity:1" fill="#000000" d="M 121.5,37.5 C 121.5,41.5 121.5,45.5 121.5,49.5C 119.833,49.5 118.167,49.5 116.5,49.5C 116.5,53.1667 116.5,56.8333 116.5,60.5C 115.517,56.7016 115.183,52.7016 115.5,48.5C 115.833,48.5 116.167,48.5 116.5,48.5C 117.833,48.5 119.167,48.5 120.5,48.5C 120.185,44.6286 120.518,40.9619 121.5,37.5 Z"/></g>
<g><path style="opacity:1" fill="#fe9900" d="M 115.5,48.5 C 115.183,52.7016 115.517,56.7016 116.5,60.5C 116.5,60.8333 116.5,61.1667 116.5,61.5C 116.56,62.0431 116.893,62.3764 117.5,62.5C 118.466,60.604 118.799,58.604 118.5,56.5C 119.5,56.1667 120.167,55.5 120.5,54.5C 121.167,54.1667 121.833,53.8333 122.5,53.5C 122.5,54.1667 122.5,54.8333 122.5,55.5C 120.076,57.2276 119.91,59.2276 122,61.5C 122.464,60.9056 122.631,60.2389 122.5,59.5C 123.906,59.0269 124.573,58.0269 124.5,56.5C 126.027,56.573 127.027,55.9063 127.5,54.5C 127.833,54.5 128.167,54.5 128.5,54.5C 129.492,54.3284 130.158,54.6618 130.5,55.5C 128.77,56.0256 127.436,57.0256 126.5,58.5C 124.912,59.6353 124.579,60.9686 125.5,62.5C 126.522,62.1445 127.189,61.4778 127.5,60.5C 129.288,60.2148 130.955,60.5481 132.5,61.5C 128.578,63.1044 125.244,65.4377 122.5,68.5C 121.167,68.5 120.5,69.1667 120.5,70.5C 119.778,70.9175 119.278,71.5842 119,72.5C 118.292,71.6195 117.458,70.9528 116.5,70.5C 116.027,69.0937 115.027,68.427 113.5,68.5C 112.486,67.3263 111.153,66.6596 109.5,66.5C 108.833,65.1667 107.833,64.1667 106.5,63.5C 105.781,61.2362 105.448,58.9029 105.5,56.5C 106.338,56.1583 106.672,55.4916 106.5,54.5C 107.396,53.4937 108.062,53.4937 108.5,54.5C 108.003,58.1623 109.169,61.1623 112,63.5C 111.589,58.2103 112.756,53.2103 115.5,48.5 Z"/></g>
<g><path style="opacity:1" fill="#000000" d="M 123.5,48.5 C 125.225,48.8425 125.725,49.8425 125,51.5C 123.961,50.7562 123.461,49.7562 123.5,48.5 Z"/></g>
<g><path style="opacity:1" fill="#000000" d="M 108.5,54.5 C 108.062,53.4937 107.396,53.4937 106.5,54.5C 106.948,52.5354 107.948,52.2021 109.5,53.5C 109.376,54.1067 109.043,54.44 108.5,54.5 Z"/></g>
<g><path style="opacity:1" fill="#000000" d="M 122.5,53.5 C 121.833,53.8333 121.167,54.1667 120.5,54.5C 120.711,52.5759 121.377,52.2426 122.5,53.5 Z"/></g>
<g><path style="opacity:1" fill="#000000" d="M 122.5,53.5 C 124.933,53.7856 124.933,54.4523 122.5,55.5C 122.5,54.8333 122.5,54.1667 122.5,53.5 Z"/></g>
<g><path style="opacity:1" fill="#000000" d="M 128.5,54.5 C 130.089,53.3789 131.756,53.5456 133.5,55C 132.552,55.4828 131.552,55.6495 130.5,55.5C 130.158,54.6618 129.492,54.3284 128.5,54.5 Z"/></g>
<g><path style="opacity:1" fill="#000000" d="M 120.5,54.5 C 120.167,55.5 119.5,56.1667 118.5,56.5C 118.5,55.1667 119.167,54.5 120.5,54.5 Z"/></g>
<g><path style="opacity:1" fill="#000000" d="M 127.5,54.5 C 127.027,55.9063 126.027,56.573 124.5,56.5C 124.973,55.0937 125.973,54.427 127.5,54.5 Z"/></g>
<g><path style="opacity:1" fill="#000000" d="M 105.5,56.5 C 105.448,58.9029 105.781,61.2362 106.5,63.5C 105.007,62.6879 104.34,61.3545 104.5,59.5C 104.52,58.2739 104.853,57.2739 105.5,56.5 Z"/></g>
<g><path style="opacity:1" fill="#000000" d="M 118.5,56.5 C 118.799,58.604 118.466,60.604 117.5,62.5C 116.893,62.3764 116.56,62.0431 116.5,61.5C 117.167,59.8333 117.833,58.1667 118.5,56.5 Z"/></g>
<g><path style="opacity:1" fill="#000000" d="M 124.5,56.5 C 124.573,58.0269 123.906,59.0269 122.5,59.5C 122.427,57.9731 123.094,56.9731 124.5,56.5 Z"/></g>
<g><path style="opacity:1" fill="#230d02" d="M 126.5,58.5 C 126.328,59.4916 126.662,60.1583 127.5,60.5C 127.189,61.4778 126.522,62.1445 125.5,62.5C 124.579,60.9686 124.912,59.6353 126.5,58.5 Z"/></g>
<g><path style="opacity:1" fill="#000000" d="M 109.5,66.5 C 111.153,66.6596 112.486,67.3263 113.5,68.5C 111.62,68.7709 110.287,68.1042 109.5,66.5 Z"/></g>
<g><path style="opacity:1" fill="#000000" d="M 96.5,68.5 C 96.0269,69.9063 95.0269,70.573 93.5,70.5C 93.9731,69.0937 94.9731,68.427 96.5,68.5 Z"/></g>
<g><path style="opacity:1" fill="#fe9900" d="M 96.5,68.5 C 101.362,68.1176 106.028,68.7843 110.5,70.5C 110.833,71.5 111.5,72.1667 112.5,72.5C 112.842,73.3382 113.508,73.6716 114.5,73.5C 114.5,74.8333 115.167,75.5 116.5,75.5C 116.5,76.8333 117.167,77.5 118.5,77.5C 119.623,78.7574 120.289,78.4241 120.5,76.5C 121.167,76.5 121.5,76.1667 121.5,75.5C 123.5,75.5 124.5,74.5 124.5,72.5C 126.027,72.573 127.027,71.9063 127.5,70.5C 129.153,70.3404 130.486,69.6737 131.5,68.5C 134.833,68.5 138.167,68.5 141.5,68.5C 141.973,69.9063 142.973,70.573 144.5,70.5C 144.328,71.4916 144.662,72.1583 145.5,72.5C 145.932,73.7095 146.599,74.7095 147.5,75.5C 148.035,81.5206 146.868,87.1873 144,92.5C 140.998,96.3338 137.831,100 134.5,103.5C 132.973,103.427 131.973,104.094 131.5,105.5C 130.5,105.833 129.833,106.5 129.5,107.5C 127.973,107.427 126.973,108.094 126.5,109.5C 124.973,109.427 123.973,110.094 123.5,111.5C 121.973,111.427 120.973,112.094 120.5,113.5C 118.5,112.833 116.5,112.167 114.5,111.5C 114.027,110.094 113.027,109.427 111.5,109.5C 109.14,107.147 106.473,105.147 103.5,103.5C 103.167,102.5 102.5,101.833 101.5,101.5C 101.167,100.5 100.5,99.8333 99.5,99.5C 91.9902,91.9676 89.3235,82.9676 91.5,72.5C 92.8333,72.5 93.5,71.8333 93.5,70.5C 95.0269,70.573 96.0269,69.9063 96.5,68.5 Z"/></g>
<g><path style="opacity:1" fill="#000000" d="M 113.5,68.5 C 115.027,68.427 116.027,69.0937 116.5,70.5C 114.973,70.573 113.973,69.9063 113.5,68.5 Z"/></g>
<g><path style="opacity:1" fill="#000000" d="M 122.5,68.5 C 122.167,69.5 121.5,70.1667 120.5,70.5C 120.5,69.1667 121.167,68.5 122.5,68.5 Z"/></g>
<g><path style="opacity:1" fill="#000000" d="M 131.5,68.5 C 130.486,69.6737 129.153,70.3404 127.5,70.5C 128.287,68.8958 129.62,68.2291 131.5,68.5 Z"/></g>
<g><path style="opacity:1" fill="#000000" d="M 141.5,68.5 C 143.027,68.427 144.027,69.0937 144.5,70.5C 142.973,70.573 141.973,69.9063 141.5,68.5 Z"/></g>
<g><path style="opacity:1" fill="#000000" d="M 93.5,70.5 C 93.5,71.8333 92.8333,72.5 91.5,72.5C 91.8333,71.5 92.5,70.8333 93.5,70.5 Z"/></g>
<g><path style="opacity:1" fill="#000000" d="M 110.5,70.5 C 111.833,70.5 112.5,71.1667 112.5,72.5C 111.5,72.1667 110.833,71.5 110.5,70.5 Z"/></g>
<g><path style="opacity:1" fill="#000000" d="M 127.5,70.5 C 127.027,71.9063 126.027,72.573 124.5,72.5C 124.973,71.0937 125.973,70.427 127.5,70.5 Z"/></g>
<g><path style="opacity:1" fill="#000000" d="M 124.5,72.5 C 124.5,74.5 123.5,75.5 121.5,75.5C 122.167,74.1667 123.167,73.1667 124.5,72.5 Z"/></g>
<g><path style="opacity:1" fill="#000000" d="M 145.5,72.5 C 147.048,72.8212 147.715,73.8212 147.5,75.5C 146.599,74.7095 145.932,73.7095 145.5,72.5 Z"/></g>
<g><path style="opacity:1" fill="#000000" d="M 114.5,73.5 C 115.5,73.8333 116.167,74.5 116.5,75.5C 115.167,75.5 114.5,74.8333 114.5,73.5 Z"/></g>
<g><path style="opacity:1" fill="#000000" d="M 116.5,75.5 C 117.5,75.8333 118.167,76.5 118.5,77.5C 117.167,77.5 116.5,76.8333 116.5,75.5 Z"/></g>
<g><path style="opacity:1" fill="#000000" d="M 120.5,76.5 C 120.289,78.4241 119.623,78.7574 118.5,77.5C 119.167,77.1667 119.833,76.8333 120.5,76.5 Z"/></g>
<g><path style="opacity:1" fill="#000000" d="M 99.5,99.5 C 100.5,99.8333 101.167,100.5 101.5,101.5C 100.167,101.5 99.5,100.833 99.5,99.5 Z"/></g>
<g><path style="opacity:1" fill="#000000" d="M 101.5,101.5 C 102.5,101.833 103.167,102.5 103.5,103.5C 102.167,103.5 101.5,102.833 101.5,101.5 Z"/></g>
<g><path style="opacity:1" fill="#000000" d="M 134.5,103.5 C 134.027,104.906 133.027,105.573 131.5,105.5C 131.973,104.094 132.973,103.427 134.5,103.5 Z"/></g>
<g><path style="opacity:1" fill="#000000" d="M 129.5,107.5 C 129.027,108.906 128.027,109.573 126.5,109.5C 126.973,108.094 127.973,107.427 129.5,107.5 Z"/></g>
<g><path style="opacity:1" fill="#000000" d="M 111.5,109.5 C 113.027,109.427 114.027,110.094 114.5,111.5C 112.973,111.573 111.973,110.906 111.5,109.5 Z"/></g>
<g><path style="opacity:1" fill="#000000" d="M 126.5,109.5 C 126.027,110.906 125.027,111.573 123.5,111.5C 123.973,110.094 124.973,109.427 126.5,109.5 Z"/></g>
<g><path style="opacity:1" fill="#000000" d="M 123.5,111.5 C 123.027,112.906 122.027,113.573 120.5,113.5C 120.973,112.094 121.973,111.427 123.5,111.5 Z"/></g>
<g><path style="opacity:1" fill="#fefffe" d="M -0.5,117.5 C 6.73062,157.397 30.064,182.064 69.5,191.5C 46.1667,191.5 22.8333,191.5 -0.5,191.5C -0.5,166.833 -0.5,142.167 -0.5,117.5 Z"/></g>
<g><path style="opacity:1" fill="#fefffe" d="M 165.5,119.5 C 165.5,143.5 165.5,167.5 165.5,191.5C 142.167,191.5 118.833,191.5 95.5,191.5C 104.002,189.388 112.336,186.554 120.5,183C 125.672,179.915 130.672,176.581 135.5,173C 151.89,158.716 161.89,140.883 165.5,119.5 Z"/></g>
</svg>

<svg xmlns="http://www.w3.org/2000/svg" width="166" height="192" style="shape-rendering:geometricPrecision;text-rendering:geometricPrecision;image-rendering:optimizeQuality;fill-rule:evenodd;clip-rule:evenodd"><path style="opacity:1" d="M-.5-.5h166v120c-3.61 21.383-13.61 39.216-30 53.5a179.617 179.617 0 0 1-15 10 157.946 157.946 0 0 1-25 8.5h-26c-39.436-9.436-62.77-34.103-70-74V-.5z"/><path style="opacity:1" fill="#c80200" d="M17.5 4.5a5184.59 5184.59 0 0 1 144-1c.167 39.668 0 79.335-.5 119-2.119 10.734-6.286 20.568-12.5 29.5-30.492 8.166-51.992-2.001-64.5-30.5a6985.124 6985.124 0 0 0-26-79C52.812 25.312 41.979 13.145 25.5 6a34.077 34.077 0 0 0-8-1.5z"/><path style="opacity:1" d="M116.5 25.5c1.419-.951 3.085-1.285 5-1v8h8v5h-8c2.107-.968 4.441-1.302 7-1v-3h-8v-8h-4z"/><path style="opacity:1" fill="#fe9900" d="M116.5 25.5h4v8h8v3c-2.559-.302-4.893.032-7 1-.982 3.462-1.315 7.129-1 11h-4v-12h-8v-3h8v-8z"/><path style="opacity:1" d="M121.5 37.5v12h-5v11c-.983-3.798-1.317-7.798-1-12h5c-.315-3.871.018-7.538 1-11z"/><path style="opacity:1" fill="#fe9900" d="M115.5 48.5c-.317 4.202.017 8.202 1 12v1c.06.543.393.876 1 1a9.86 9.86 0 0 0 1-6c1-.333 1.667-1 2-2l2-1v2c-2.424 1.728-2.59 3.728-.5 6a2.429 2.429 0 0 0 .5-2c1.406-.473 2.073-1.473 2-3 1.527.073 2.527-.594 3-2h1c.992-.172 1.658.162 2 1-1.73.526-3.064 1.526-4 3-1.588 1.135-1.921 2.469-1 4 1.022-.355 1.689-1.022 2-2 1.788-.285 3.455.048 5 1-3.922 1.604-7.256 3.938-10 7-1.333 0-2 .667-2 2-.722.418-1.222 1.084-1.5 2-.708-.88-1.542-1.547-2.5-2-.473-1.406-1.473-2.073-3-2-1.014-1.174-2.347-1.84-4-2a6.544 6.544 0 0 0-3-3 21.434 21.434 0 0 1-1-7c.838-.342 1.172-1.008 1-2 .896-1.006 1.562-1.006 2 0-.497 3.662.669 6.662 3.5 9-.411-5.29.756-10.29 3.5-15z"/><path style="opacity:1" d="M123.5 48.5c1.725.343 2.225 1.343 1.5 3-1.039-.744-1.539-1.744-1.5-3zM108.5 54.5c-.438-1.006-1.104-1.006-2 0 .448-1.965 1.448-2.298 3-1-.124.607-.457.94-1 1zM122.5 53.5l-2 1c.211-1.924.877-2.257 2-1zM122.5 53.5c2.433.286 2.433.952 0 2v-2zM128.5 54.5c1.589-1.121 3.256-.954 5 .5a4.932 4.932 0 0 1-3 .5c-.342-.838-1.008-1.172-2-1zM120.5 54.5c-.333 1-1 1.667-2 2 0-1.333.667-2 2-2zM127.5 54.5c-.473 1.406-1.473 2.073-3 2 .473-1.406 1.473-2.073 3-2zM105.5 56.5a21.434 21.434 0 0 0 1 7c-1.493-.812-2.16-2.145-2-4 .02-1.226.353-2.226 1-3zM118.5 56.5a9.86 9.86 0 0 1-1 6c-.607-.124-.94-.457-1-1l2-5zM124.5 56.5c.073 1.527-.594 2.527-2 3-.073-1.527.594-2.527 2-3z"/><path style="opacity:1" fill="#230d02" d="M126.5 58.5c-.172.992.162 1.658 1 2-.311.978-.978 1.645-2 2-.921-1.531-.588-2.865 1-4z"/><path style="opacity:1" d="M109.5 66.5c1.653.16 2.986.826 4 2-1.88.27-3.213-.396-4-2zM96.5 68.5c-.473 1.406-1.473 2.073-3 2 .473-1.406 1.473-2.073 3-2z"/><path style="opacity:1" fill="#fe9900" d="M96.5 68.5c4.862-.382 9.528.284 14 2 .333 1 1 1.667 2 2 .342.838 1.008 1.172 2 1 0 1.333.667 2 2 2 0 1.333.667 2 2 2 1.123 1.257 1.789.924 2-1 .667 0 1-.333 1-1 2 0 3-1 3-3 1.527.073 2.527-.594 3-2 1.653-.16 2.986-.826 4-2h10c.473 1.406 1.473 2.073 3 2-.172.992.162 1.658 1 2 .432 1.21 1.099 2.21 2 3 .535 6.02-.632 11.687-3.5 17a150.816 150.816 0 0 1-9.5 11c-1.527-.073-2.527.594-3 2-1 .333-1.667 1-2 2-1.527-.073-2.527.594-3 2-1.527-.073-2.527.594-3 2-1.527-.073-2.527.594-3 2l-6-2c-.473-1.406-1.473-2.073-3-2a35.916 35.916 0 0 0-8-6c-.333-1-1-1.667-2-2-.333-1-1-1.667-2-2-7.51-7.532-10.177-16.532-8-27 1.333 0 2-.667 2-2 1.527.073 2.527-.594 3-2z"/><path style="opacity:1" d="M113.5 68.5c1.527-.073 2.527.594 3 2-1.527.073-2.527-.594-3-2zM122.5 68.5c-.333 1-1 1.667-2 2 0-1.333.667-2 2-2zM131.5 68.5c-1.014 1.174-2.347 1.84-4 2 .787-1.604 2.12-2.27 4-2zM141.5 68.5c1.527-.073 2.527.594 3 2-1.527.073-2.527-.594-3-2zM93.5 70.5c0 1.333-.667 2-2 2 .333-1 1-1.667 2-2zM110.5 70.5c1.333 0 2 .667 2 2-1-.333-1.667-1-2-2zM127.5 70.5c-.473 1.406-1.473 2.073-3 2 .473-1.406 1.473-2.073 3-2zM124.5 72.5c0 2-1 3-3 3a6.544 6.544 0 0 1 3-3zM145.5 72.5c1.548.321 2.215 1.321 2 3-.901-.79-1.568-1.79-2-3zM114.5 73.5c1 .333 1.667 1 2 2-1.333 0-2-.667-2-2zM116.5 75.5c1 .333 1.667 1 2 2-1.333 0-2-.667-2-2zM120.5 76.5c-.211 1.924-.877 2.257-2 1l2-1zM99.5 99.5c1 .333 1.667 1 2 2-1.333 0-2-.667-2-2zM101.5 101.5c1 .333 1.667 1 2 2-1.333 0-2-.667-2-2zM134.5 103.5c-.473 1.406-1.473 2.073-3 2 .473-1.406 1.473-2.073 3-2zM129.5 107.5c-.473 1.406-1.473 2.073-3 2 .473-1.406 1.473-2.073 3-2zM111.5 109.5c1.527-.073 2.527.594 3 2-1.527.073-2.527-.594-3-2zM126.5 109.5c-.473 1.406-1.473 2.073-3 2 .473-1.406 1.473-2.073 3-2zM123.5 111.5c-.473 1.406-1.473 2.073-3 2 .473-1.406 1.473-2.073 3-2z"/><path style="opacity:1" fill="#fefffe" d="M-.5 117.5c7.23 39.897 30.564 64.564 70 74h-70v-74zM165.5 119.5v72h-70a157.946 157.946 0 0 0 25-8.5 179.617 179.617 0 0 0 15-10c16.39-14.284 26.39-32.117 30-53.5z"/></svg>
